X:1
T:Title
%%score { ( 1 3 ) | ( 2 4 ) }
L:1/8
M:6/8
K:Eb
V:1 treble nm="Grand Piano"
V:3 treble 
V:2 bass 
V:4 bass 
V:1
 z3 z2[Q:1/4=90] E | G2 G G2 [FA] | [GB]2 [AB] B3 | e>dc BAG |[M:5/8] [DF]-[DF]- [DF]3 |[M:1/8] E | %6
[M:3/4] G2 G G2 A | B2 B B2 A | G>G G[DB] [FA][DF] | E6 | B>B B e2 B | c2 [Ec] [EB]2 [EG]/[DF]/ | %12
 E2 E F2 G | [DF]4- [DF][EG]/[FA]/ | [GB]2 [GB] [Ge]2 [EGB] | [EAc]2 [EAc] [EGB]2 [CFA] | %16
 [EG]2 [EG][EB] A[DF] |[M:5/8] E-E- E3 |[M:4/4] G3 F E3 E | [DF]2 [DG]2 E4 | B4 c2 B2 | %21
 G2 E2 [DF]4- | [DF]2 E2 G3 F | E2 G2 C2 [CE]2 | [G,B,E]2 [B,EG]2 [A,DF]3 [G,E] | %25
[M:3/4] [B,EG]2 [A,DF]2 [G,E]2- | [G,E]4 z2 |] %27
V:2
 z3 z2 [E,G,] | [E,B,E]2 [E,B,E] [E,B,E]2 [E,B,] | [E,E]2 [F,D][K:treble] [G,EG]3 | %3
 [A,CE]>[A,CE][A,E] [G,B,E][K:bass][F,B,D][E,B,E] |[M:5/8] B,3 z2 |[M:1/8] [E,G,] | %6
[M:3/4] [E,B,E]2 [E,B,E] [E,B,E]2 [E,B,F] | [E,G,E]2 [F,A,D][K:treble] [G,B,E]2 [A,CF] | %8
 [B,E]>[B,E] [B,E][K:bass][B,,B,] [B,,B,][B,,A,] | [E,G,]6 | %10
 [E,G,E]>[E,G,E] [E,G,E] [G,B,E]2 [G,B,E] | [A,E]2 [A,,A,] [E,G,]2 [E,B,]/[B,,A,]/ | %12
 [C,G,]2 [C,G,] [F,=A,E]2 [F,A,E] | [B,,B,]4- [B,,B,][E,B,] | [E,E]2 [E,E] [E,B,]2 E, | %15
 A,2 A, E,2 A,, | [B,,B,]2 [B,,B,]G, [F,D][B,,A,] |[M:5/8] [E,G,]-[E,G,]- [E,G,]3 | %18
[M:4/4] [E,B,E]3 [E,A,D] [E,G,]3 [E,G,] | [B,,A,]2 [B,,B,]2 [E,G,]4 | [E,G,E]4 [E,A,E]2 [E,G,E]2 | %21
 [E,B,E]2 [E,G,]2 [B,,B,]4- | [B,,B,]2 [E,G,]2 [E,B,E]3 [E,A,D] | %23
 [E,G,]2 [E,B,E]2 [A,,A,]2 [A,,A,]2 | E,2 E,2 B,,3 C, |[M:3/4] B,,2 B,,2 E,2- | E,4 z2 |] %27
V:3
 x6 | x6 | x6 | x6 |[M:5/8] z z2 A,2 |[M:1/8] x |[M:3/4] x6 | x6 | x6 | x6 | x6 | x6 | x6 | x6 | %14
 x6 | x6 | x6 |[M:5/8] x5 |[M:4/4] x8 | x8 | x8 | x8 | x8 | x8 | x8 |[M:3/4] x6 | x6 |] %27
V:4
 x6 | x6 | x3[K:treble] x3 | x4[K:bass] x2 |[M:5/8] B,,-B,,- B,,3 |[M:1/8] x |[M:3/4] x6 | %7
 x3[K:treble] x3 | x3[K:bass] x3 | x6 | x6 | x6 | x6 | x6 | x6 | x6 | z2 z .B,,3 |[M:5/8] x5 | %18
[M:4/4] x8 | x8 | x8 | x8 | x8 | x8 | x8 |[M:3/4] x6 | x6 |] %27

